packages/dnb-eufemia/assets/icons/card_with_padlock.svg

<svg width="16" height="16" viewBox="0 0 16 16" fill="none" xmlns="http://www.w3.org/2000/svg">
<path d="M2 2.50003L2 1.75003L2 2.50003ZM14 2.5L14 3.25H14L14 2.5ZM4 4.25003C3.58579 4.25003 3.25 4.58581 3.25 5.00003C3.25 5.41424 3.58579 5.75003 4 5.75003V4.25003ZM6 5.75003C6.41421 5.75003 6.75 5.41424 6.75 5.00003C6.75 4.58581 6.41421 4.25003 6 4.25003V5.75003ZM4 8.25003C3.58579 8.25003 3.25 8.58581 3.25 9.00003C3.25 9.41424 3.58579 9.75003 4 9.75003V8.25003ZM6 9.75003C6.41421 9.75003 6.75 9.41424 6.75 9.00003C6.75 8.58581 6.41421 8.25003 6 8.25003V9.75003ZM6 12.2823C6.41421 12.2823 6.75 11.9465 6.75 11.5323C6.75 11.1181 6.41421 10.7823 6 10.7823V12.2823ZM14.25 4.5C14.25 4.91421 14.5858 5.25 15 5.25C15.4142 5.25 15.75 4.91421 15.75 4.5H14.25ZM9.5 9.36366V8.61366C9.08579 8.61366 8.75 8.94945 8.75 9.36366H9.5ZM15 9.36366H15.75C15.75 8.94945 15.4142 8.61366 15 8.61366V9.36366ZM15 13.5V14.25C15.4142 14.25 15.75 13.9142 15.75 13.5H15ZM9.5 13.5H8.75C8.75 13.9142 9.08579 14.25 9.5 14.25V13.5ZM2 3.25003L14 3.25L14 1.75L2 1.75003L2 3.25003ZM1.75 10.5323V3.50003H0.25V10.5323H1.75ZM4 5.75003H6V4.25003H4V5.75003ZM4 9.75003H6V8.25003H4V9.75003ZM6 10.7823H2V12.2823H6V10.7823ZM14.25 3.5V4.5H15.75V3.5H14.25ZM0.25 10.5323C0.25 11.4988 1.0335 12.2823 2 12.2823V10.7823C1.86193 10.7823 1.75 10.6703 1.75 10.5323H0.25ZM14 3.25C14.1381 3.25 14.25 3.36193 14.25 3.5H15.75C15.75 2.5335 14.9665 1.75 14 1.75L14 3.25ZM2 1.75003C1.0335 1.75003 0.25 2.53353 0.25 3.50003H1.75C1.75 3.36196 1.86193 3.25003 2 3.25003L2 1.75003ZM14.25 9.36366V13.5H15.75V9.36366H14.25ZM15 12.75H9.5V14.25H15V12.75ZM10.25 13.5V9.36366H8.75V13.5H10.25ZM11.3194 8.62503C11.3194 8.16534 11.7121 7.75003 12.25 7.75003V6.25003C10.9316 6.25003 9.81944 7.28979 9.81944 8.62503H11.3194ZM12.25 7.75003C12.7879 7.75003 13.1806 8.16534 13.1806 8.62503H14.6806C14.6806 7.28979 13.5684 6.25003 12.25 6.25003V7.75003ZM9.5 10.1137H10.5694V8.61366H9.5V10.1137ZM9.81944 8.62503V9.36366H11.3194V8.62503H9.81944ZM10.5694 10.1137H13.9306V8.61366H10.5694V10.1137ZM13.9306 10.1137H15V8.61366H13.9306V10.1137ZM13.1806 8.62503V9.36366H14.6806V8.62503H13.1806Z" fill="black"/>
</svg>

<svg width="16" height="16" viewBox="0 0 16 16" fill="none" xmlns="http://www.w3.org/2000/svg"><path d="M2 2.5v-.75.75Zm12 0v.75-.75ZM4 4.25a.75.75 0 1 0 0 1.5v-1.5Zm1.546 1.5a.75.75 0 0 0 0-1.5v1.5ZM4 8.25a.75.75 0 1 0 0 1.5v-1.5Zm3.115 1.5a.75.75 0 1 0 0-1.5v1.5Zm0 2.532a.75.75 0 0 0 0-1.5v1.5ZM14.25 4.5a.75.75 0 0 0 1.5 0h-1.5ZM9.5 9.364v-.75a.75.75 0 0 0-.75.75h.75Zm5.5 0h.75a.75.75 0 0 0-.75-.75v.75Zm0 4.136v.75a.75.75 0 0 0 .75-.75H15Zm-5.5 0h-.75c0 .414.336.75.75.75v-.75ZM2 3.25h12v-1.5H2v1.5Zm-.25 7.282V3.5H.25v7.032h1.5ZM4 5.75h1.546v-1.5H4v1.5Zm0 4h3.115v-1.5H4v1.5Zm3.115 1.032H2v1.5h5.115v-1.5ZM14.25 3.5v1h1.5v-1h-1.5Zm-14 7.032c0 .967.784 1.75 1.75 1.75v-1.5a.25.25 0 0 1-.25-.25H.25ZM14 3.25a.25.25 0 0 1 .25.25h1.5A1.75 1.75 0 0 0 14 1.75v1.5ZM2 1.75A1.75 1.75 0 0 0 .25 3.5h1.5A.25.25 0 0 1 2 3.25v-1.5Zm12.25 7.614V13.5h1.5V9.364h-1.5ZM15 12.75H9.5v1.5H15v-1.5Zm-4.75.75V9.364h-1.5V13.5h1.5Zm1.07-5.66c0-.46.392-.875.93-.875v-1.5c-1.318 0-2.43 1.04-2.43 2.375h1.5Zm.93-.875c.538 0 .93.415.93.875h1.5c0-1.335-1.112-2.375-2.43-2.375v1.5ZM9.5 10.114h1.07v-1.5H9.5v1.5Zm.32-2.274v1.524h1.5V7.84h-1.5Zm.75 2.274h3.36v-1.5h-3.36v1.5Zm3.36 0H15v-1.5h-1.07v1.5Zm-.75-2.274v1.524h1.5V7.84h-1.5Z" fill="#000"/></svg>
